X: 41500
T: Uirchill A' Chreagain
R: waltz
M: 3/4
K: Cmajor
|:G2|c4 dd|cA2 G3|GA cc3|d/e c2c G3/2|A4 {d}e2|
e3 ef/e/d/c/|g4 e2|ed cc3|d/e c2c3/2 G|A4 e2|
dc3 dd|cA2 G3|GA cc3|d/e c2c3/2 G|A4 {d}e2|
e3 ef/e/d/c/|g4 g2|ed c3d|c4 dc/B/|c4:|

